X: 30134
T: Old Bush, The
R: reel
M: 4/4
K: Dmixolydian
|:d^c|A2EA ^cA~A2|d^cde fde^c|A2EA ^cA~A2|dfed ^cAd^c|
(3ABA EA ^cAA2|d^cde ~f3g|afge fde^c|1 dfed ^cA:|2 dfed ^cA A2||
|:eg~g2 ed^cd|efge {B}c3d|eg~g2 afge|dfed cAA2|
eg~g2 ag~g2|effe defg|afgA fde^c|1 dfed ^cAA2:|2 dfed ^ced^c||

